icons/broadcast-24.svg

<svg width="24" height="24" viewBox="0 0 24 24" xmlns="http://www.w3.org/2000/svg">
  <path d="M20.4853 2.51459C20.1924 2.2217 19.7175 2.2217 19.4246 2.51459C19.1317 2.80749 19.1317 3.28236 19.4246 3.57525C21.3256 5.4762 22.5 8.10017 22.5 10.9999C22.5 13.8996 21.3256 16.5235 19.4246 18.4245C19.1317 18.7174 19.1317 19.1923 19.4246 19.4852C19.7175 19.778 20.1924 19.778 20.4853 19.4852C22.656 17.3144 24 14.3134 24 10.9999C24 7.68637 22.656 4.68534 20.4853 2.51459Z"/>
  <path d="M4.57538 3.57525C4.86827 3.28236 4.86827 2.80749 4.57538 2.51459C4.28249 2.2217 3.80761 2.2217 3.51472 2.51459C1.34397 4.68534 0 7.68637 0 10.9999C0 14.3134 1.34397 17.3144 3.51472 19.4852C3.80761 19.778 4.28249 19.778 4.57538 19.4852C4.86827 19.1923 4.86827 18.7174 4.57538 18.4245C2.67443 16.5235 1.5 13.8996 1.5 10.9999C1.5 8.10017 2.67443 5.4762 4.57538 3.57525Z"/>
  <path d="M8.11091 7.11079C8.4038 6.81789 8.4038 6.34302 8.11091 6.05013C7.81802 5.75723 7.34315 5.75723 7.05025 6.05013C5.78432 7.31606 5 9.06708 5 10.9999C5 12.9327 5.78432 14.6837 7.05025 15.9496C7.34315 16.2425 7.81802 16.2425 8.11091 15.9496C8.4038 15.6567 8.4038 15.1819 8.11091 14.889C7.11479 13.8928 6.5 12.5189 6.5 10.9999C6.5 9.48088 7.11479 8.10691 8.11091 7.11079Z"/>
  <path d="M16.9497 6.05013C16.6569 5.75723 16.182 5.75723 15.8891 6.05013C15.5962 6.34302 15.5962 6.81789 15.8891 7.11079C16.8852 8.10691 17.5 9.48088 17.5 10.9999C17.5 12.5189 16.8852 13.8928 15.8891 14.889C15.5962 15.1819 15.5962 15.6567 15.8891 15.9496C16.182 16.2425 16.6569 16.2425 16.9497 15.9496C18.2157 14.6837 19 12.9327 19 10.9999C19 9.06708 18.2157 7.31606 16.9497 6.05013Z"/>
  <path d="M14 11C14 11.8393 13.483 12.5579 12.75 12.8546V21.25C12.75 21.6642 12.4142 22 12 22C11.5858 22 11.25 21.6642 11.25 21.25V12.8546C10.517 12.5579 10 11.8393 10 11C10 9.89543 10.8954 9 12 9C13.1046 9 14 9.89543 14 11Z"/>
</svg>

<svg xmlns="http://www.w3.org/2000/svg" width="24" height="24" viewBox="0 0 24 24"><path d="M20.485 2.515a.75.75 0 00-1.06 1.06A10.465 10.465 0 0122.5 11c0 2.9-1.174 5.523-3.075 7.424a.75.75 0 001.06 1.061A11.965 11.965 0 0024 11c0-3.314-1.344-6.315-3.515-8.485zm-15.91 1.06a.75.75 0 00-1.06-1.06A11.965 11.965 0 000 11c0 3.313 1.344 6.314 3.515 8.485a.75.75 0 001.06-1.06A10.465 10.465 0 011.5 11c0-2.9 1.174-5.524 3.075-7.425zM8.11 7.11a.75.75 0 00-1.06-1.06A6.98 6.98 0 005 11a6.98 6.98 0 002.05 4.95.75.75 0 001.06-1.061 5.48 5.48 0 01-1.61-3.89 5.48 5.48 0 011.61-3.888zm8.84-1.06a.75.75 0 10-1.06 1.06A5.48 5.48 0 0117.5 11a5.48 5.48 0 01-1.61 3.889.75.75 0 101.06 1.06A6.98 6.98 0 0019 11a6.98 6.98 0 00-2.05-4.949zM14 11a2 2 0 01-1.25 1.855v8.395a.75.75 0 01-1.5 0v-8.395A2 2 0 1114 11z"/></svg>
